X:0
T:Kar mi yagdi Kutahya'nin dagina?
T:Did it snow on the mountain of Kutahya?
S:Hamdi Tanses, Zeybekler ve Ege-Akdeniz Turkuleri
G:song with saz accompaniment
M:9/8
L:1/16
K:ADor
g2gf e2d2 dccB AGA2A2|
g2gf e2d2 dccB AGA2A2|
dccB A2Bd dccB AGA2A2|
M:7/8
c3B  BAA2 AccBBA|
M:9/8
  G2BA    cc/d/cB    BAA2       A4     z2 |
  g2g2    f2a2       g2f/e/f/g/ e4     ed |
|:d4      dgfg       a2g/a/g/a/ fg e2(3dcd|
  edcd    d/c/B/c/dB AA3        AcBABA    |
  d2c/B/c B2A2       A8                z2:|

Major/mixolydian hexatonic in China:

